global/background/texture.svg

<svg version="1.1" xmlns="http://www.w3.org/2000/svg" xmlns:xlink="http://www.w3.org/1999/xlink" width="565.68331" height="395.9808"><g transform="translate(-0.0003,0.00383)"><g data-paper-data="{&quot;isPaintingLayer&quot;:true}" fill="#e39357" fill-rule="nonzero" stroke="none" stroke-width="1" stroke-linecap="butt" stroke-linejoin="miter" stroke-miterlimit="10" stroke-dasharray="" stroke-dashoffset="0" font-family="none" font-weight="none" font-size="none" text-anchor="none" style="mix-blend-mode: normal"><path d="M0.0003,28.28354l28.284,-28.284l28.284,28.284l-28.284,28.284z" id="XMLID_1_"/><path d="M0.00036,84.85198l28.284,-28.284l28.284,28.284l-28.284,28.284z" id="XMLID_3_"/><path d="M56.5688,84.85193l28.284,-28.284l28.284,28.284l-28.284,28.284z" id="XMLID_4_"/><path d="M56.56874,28.28348l28.284,-28.284l28.284,28.284l-28.284,28.284z" id="XMLID_5_"/><path d="M113.13658,28.28271l28.284,-28.284l28.284,28.284l-28.284,28.284z" id="XMLID_11_"/><path d="M113.13664,84.85116l28.284,-28.284l28.284,28.284l-28.284,28.284z" id="XMLID_10_"/><path d="M169.70508,84.85109l28.284,-28.284l28.284,28.284l-28.284,28.284z" id="XMLID_9_"/><path d="M169.70502,28.28265l28.284,-28.284l28.284,28.284l-28.284,28.284z" id="XMLID_8_"/><path d="M226.27275,28.28188l28.284,-28.284l28.284,28.284l-28.284,28.284z" id="XMLID_16_"/><path d="M226.27281,84.85032l28.284,-28.284l28.284,28.284l-28.284,28.284z" id="XMLID_15_"/><path d="M282.84135,84.85027l28.284,-28.284l28.284,28.284l-28.284,28.284z" id="XMLID_14_"/><path d="M282.84129,28.28182l28.284,-28.284l28.284,28.284l-28.284,28.284z" id="XMLID_13_"/><path d="M339.40973,28.28176l28.284,-28.284l28.284,28.284l-28.284,28.284z" id="XMLID_21_"/><path d="M339.40979,84.8502l28.284,-28.284l28.284,28.284l-28.284,28.284z" id="XMLID_20_"/><path d="M395.97762,84.84943l28.284,-28.284l28.284,28.284l-28.284,28.284z" id="XMLID_19_"/><path d="M395.97756,28.28099l28.284,-28.284l28.284,28.284l-28.284,28.284z" id="XMLID_18_"/><path d="M452.546,28.28093l28.284,-28.284l28.284,28.284l-28.284,28.284z" id="XMLID_26_"/><path d="M452.54606,84.84937l28.284,-28.284l28.284,28.284l-28.284,28.284z" id="XMLID_25_"/><g id="XMLID_45_"><path d="M0.00112,141.41982l28.284,-28.284l28.284,28.284l-28.284,28.284z" id="XMLID_49_"/><path d="M0.00119,197.98825l28.284,-28.284l28.284,28.284l-28.284,28.284z" id="XMLID_48_"/><path d="M56.56963,197.98821l28.284,-28.284l28.284,28.284l-28.284,28.284z" id="XMLID_47_"/><path d="M56.56957,141.41975l28.284,-28.284l28.284,28.284l-28.284,28.284z" id="XMLID_46_"/></g><g id="XMLID_40_"><path d="M113.1374,141.419l28.284,-28.284l28.284,28.284l-28.284,28.284z" id="XMLID_44_"/><path d="M113.13746,197.98742l28.284,-28.284l28.284,28.284l-28.284,28.284z" id="XMLID_43_"/><path d="M169.7059,197.98738l28.284,-28.284l28.284,28.284l-28.284,28.284z" id="XMLID_42_"/><path d="M169.70584,141.41893l28.284,-28.284l28.284,28.284l-28.284,28.284z" id="XMLID_41_"/></g><g id="XMLID_35_"><path d="M226.27358,141.41815l28.284,-28.284l28.284,28.284l-28.284,28.284z" id="XMLID_39_"/><path d="M226.27364,197.98661l28.284,-28.284l28.284,28.284l-28.284,28.284z" id="XMLID_38_"/><path d="M282.84218,197.98653l28.284,-28.284l28.284,28.284l-28.284,28.284z" id="XMLID_37_"/><path d="M282.84211,141.41811l28.284,-28.284l28.284,28.284l-28.284,28.284z" id="XMLID_36_"/></g><g id="XMLID_30_"><path d="M339.41056,141.41803l28.284,-28.284l28.284,28.284l-28.284,28.284z" id="XMLID_34_"/><path d="M339.41062,197.98649l28.284,-28.284l28.284,28.284l-28.284,28.284z" id="XMLID_33_"/><path d="M395.97845,197.98572l28.284,-28.284l28.284,28.284l-28.284,28.284z" id="XMLID_32_"/><path d="M395.97839,141.41726l28.284,-28.284l28.284,28.284l-28.284,28.284z" id="XMLID_31_"/></g><path d="M452.54683,141.41722l28.284,-28.284l28.284,28.284l-28.284,28.284z" id="XMLID_29_"/><path d="M452.54689,197.98565l28.284,-28.284l28.284,28.284l-28.284,28.284z" id="XMLID_28_"/><g id="XMLID_69_"><path d="M0.00196,254.556l28.284,-28.284l28.284,28.284l-28.284,28.284z" id="XMLID_73_"/><path d="M0.00202,311.12453l28.284,-28.284l28.284,28.284l-28.284,28.284z" id="XMLID_72_"/><path d="M56.57046,311.12447l28.284,-28.284l28.284,28.284l-28.284,28.284z" id="XMLID_71_"/><path d="M56.5704,254.55592l28.284,-28.284l28.284,28.284l-28.284,28.284z" id="XMLID_70_"/></g><g id="XMLID_64_"><path d="M113.13823,254.55517l28.284,-28.284l28.284,28.284l-28.284,28.284z" id="XMLID_68_"/><path d="M113.13829,311.1237l28.284,-28.284l28.284,28.284l-28.284,28.284z" id="XMLID_67_"/><path d="M169.70673,311.12365l28.284,-28.284l28.284,28.284l-28.284,28.284z" id="XMLID_66_"/><path d="M169.70667,254.55511l28.284,-28.284l28.284,28.284l-28.284,28.284z" id="XMLID_65_"/></g><g id="XMLID_59_"><path d="M226.2744,254.55433l28.284,-28.284l28.284,28.284l-28.284,28.284z" id="XMLID_63_"/><path d="M226.27446,311.12289l28.284,-28.284l28.284,28.284l-28.284,28.284z" id="XMLID_62_"/><path d="M282.843,311.12282l28.284,-28.284l28.284,28.284l-28.284,28.284z" id="XMLID_61_"/><path d="M282.84294,254.55429l28.284,-28.284l28.284,28.284l-28.284,28.284z" id="XMLID_60_"/></g><g id="XMLID_54_"><path d="M339.41138,254.55422l28.284,-28.284l28.284,28.284l-28.284,28.284z" id="XMLID_58_"/><path d="M339.41144,311.12277l28.284,-28.284l28.284,28.284l-28.284,28.284z" id="XMLID_57_"/><path d="M395.97928,311.12199l28.284,-28.284l28.284,28.284l-28.284,28.284z" id="XMLID_56_"/><path d="M395.97922,254.55346l28.284,-28.284l28.284,28.284l-28.284,28.284z" id="XMLID_55_"/></g><g id="XMLID_51_"><path d="M452.54766,254.5534l28.284,-28.284l28.284,28.284l-28.284,28.284z" id="XMLID_53_"/><path d="M452.54772,311.12194l28.284,-28.284l28.284,28.284l-28.284,28.284z" id="XMLID_52_"/></g><path d="M0.00208,367.69298l28.284,-28.284l28.284,28.284l-28.284,28.284z" id="XMLID_97_"/><path d="M56.57052,367.69292l28.284,-28.284l28.284,28.284l-28.284,28.284z" id="XMLID_94_"/><path d="M113.13835,367.69215l28.284,-28.284l28.284,28.284l-28.284,28.284z" id="XMLID_92_"/><path d="M169.70679,367.69209l28.284,-28.284l28.284,28.284l-28.284,28.284z" id="XMLID_89_"/><path d="M226.27452,367.69133l28.284,-28.284l28.284,28.284l-28.284,28.284z" id="XMLID_87_"/><path d="M282.84306,367.69127l28.284,-28.284l28.284,28.284l-28.284,28.284z" id="XMLID_84_"/><g id="XMLID_78_"><path d="M339.4115,367.69121l28.284,-28.284l28.284,28.284l-28.284,28.284z" id="XMLID_82_"/><path d="M395.97934,367.69044l28.284,-28.284l28.284,28.284l-28.284,28.284z" id="XMLID_79_"/></g><path d="M452.54778,367.69037l28.284,-28.284l28.284,28.284l-28.284,28.284z" id="XMLID_77_"/><path d="M509.11383,28.28017l28.284,-28.284l28.284,28.284l-28.284,28.284z" id="XMLID_50_"/><path d="M509.11389,84.84861l28.284,-28.284l28.284,28.284l-28.284,28.284z" id="XMLID_27_"/><path d="M509.11466,141.41644l28.284,-28.284l28.284,28.284l-28.284,28.284z" id="XMLID_24_"/><path d="M509.11472,197.9849l28.284,-28.284l28.284,28.284l-28.284,28.284z" id="XMLID_23_"/><g id="XMLID_12_"><path d="M509.11549,254.55261l28.284,-28.284l28.284,28.284l-28.284,28.284z" id="XMLID_22_"/><path d="M509.11555,311.12116l28.284,-28.284l28.284,28.284l-28.284,28.284z" id="XMLID_17_"/></g><path d="M509.11561,367.68961l28.284,-28.284l28.284,28.284l-28.284,28.284z" id="XMLID_7_"/></g></g></svg>

<svg width="566" height="396" viewBox="0 0 566 396" fill="none" xmlns="http://www.w3.org/2000/svg">
<g clip-path="url(#clip0_3_3)">
<path d="M0 28.2874L28.284 0.00336838L56.568 28.2874L28.284 56.5714L0 28.2874Z" fill="white"/>
<path d="M6.10352e-05 84.8558L28.2841 56.5718L56.5681 84.8558L28.2841 113.14L6.10352e-05 84.8558Z" fill="white"/>
<path d="M56.5685 84.8558L84.8525 56.5718L113.136 84.8558L84.8525 113.14L56.5685 84.8558Z" fill="white"/>
<path d="M56.5684 28.2873L84.8524 0.00331116L113.136 28.2873L84.8524 56.5713L56.5684 28.2873Z" fill="white"/>
<path d="M113.136 28.2865L141.42 0.00254059L169.704 28.2865L141.42 56.5705L113.136 28.2865Z" fill="white"/>
<path d="M113.136 84.855L141.42 56.571L169.704 84.855L141.42 113.139L113.136 84.855Z" fill="white"/>
<path d="M169.705 84.8549L197.989 56.5709L226.273 84.8549L197.989 113.139L169.705 84.8549Z" fill="white"/>
<path d="M169.705 28.2865L197.989 0.00247955L226.273 28.2865L197.989 56.5705L169.705 28.2865Z" fill="white"/>
<path d="M226.272 28.2857L254.556 0.00170898L282.84 28.2857L254.556 56.5697L226.272 28.2857Z" fill="white"/>
<path d="M226.273 84.8541L254.557 56.5701L282.841 84.8541L254.557 113.138L226.273 84.8541Z" fill="white"/>
<path d="M282.841 84.8541L311.125 56.5701L339.409 84.8541L311.125 113.138L282.841 84.8541Z" fill="white"/>
<path d="M282.841 28.2857L311.125 0.00165176L339.409 28.2857L311.125 56.5696L282.841 28.2857Z" fill="white"/>
<path d="M339.409 28.2856L367.693 0.00159073L395.977 28.2856L367.693 56.5696L339.409 28.2856Z" fill="white"/>
<path d="M339.409 84.854L367.693 56.57L395.977 84.854L367.693 113.138L339.409 84.854Z" fill="white"/>
<path d="M395.977 84.8533L424.261 56.5693L452.545 84.8533L424.261 113.137L395.977 84.8533Z" fill="white"/>
<path d="M395.977 28.2848L424.261 0.00082016L452.545 28.2848L424.261 56.5688L395.977 28.2848Z" fill="white"/>
<path d="M452.546 28.2848L480.83 0.000759125L509.114 28.2848L480.83 56.5688L452.546 28.2848Z" fill="white"/>
<path d="M452.546 84.8532L480.83 56.5692L509.114 84.8532L480.83 113.137L452.546 84.8532Z" fill="white"/>
<path d="M0.000816345 141.424L28.2848 113.14L56.5688 141.424L28.2848 169.708L0.000816345 141.424Z" fill="white"/>
<path d="M0.00088501 197.992L28.2849 169.708L56.5689 197.992L28.2849 226.276L0.00088501 197.992Z" fill="white"/>
<path d="M56.5693 197.992L84.8533 169.708L113.137 197.992L84.8533 226.276L56.5693 197.992Z" fill="white"/>
<path d="M56.5693 141.424L84.8533 113.14L113.137 141.424L84.8533 169.708L56.5693 141.424Z" fill="white"/>
<path d="M113.137 141.423L141.421 113.139L169.705 141.423L141.421 169.707L113.137 141.423Z" fill="white"/>
<path d="M113.137 197.991L141.421 169.707L169.705 197.991L141.421 226.275L113.137 197.991Z" fill="white"/>
<path d="M169.706 197.991L197.99 169.707L226.274 197.991L197.99 226.275L169.706 197.991Z" fill="white"/>
<path d="M169.706 141.423L197.99 113.139L226.274 141.423L197.99 169.707L169.706 141.423Z" fill="white"/>
<path d="M226.273 141.422L254.557 113.138L282.841 141.422L254.557 169.706L226.273 141.422Z" fill="white"/>
<path d="M226.273 197.99L254.557 169.706L282.841 197.99L254.557 226.274L226.273 197.99Z" fill="white"/>
<path d="M282.842 197.99L311.126 169.706L339.41 197.99L311.126 226.274L282.842 197.99Z" fill="white"/>
<path d="M282.842 141.422L311.126 113.138L339.41 141.422L311.126 169.706L282.842 141.422Z" fill="white"/>
<path d="M339.41 141.422L367.694 113.138L395.978 141.422L367.694 169.706L339.41 141.422Z" fill="white"/>
<path d="M339.41 197.99L367.694 169.706L395.978 197.99L367.694 226.274L339.41 197.99Z" fill="white"/>
<path d="M395.978 197.99L424.262 169.706L452.546 197.99L424.262 226.274L395.978 197.99Z" fill="white"/>
<path d="M395.978 141.421L424.262 113.137L452.546 141.421L424.262 169.705L395.978 141.421Z" fill="white"/>
<path d="M452.547 141.421L480.831 113.137L509.115 141.421L480.831 169.705L452.547 141.421Z" fill="white"/>
<path d="M452.547 197.989L480.831 169.705L509.115 197.989L480.831 226.273L452.547 197.989Z" fill="white"/>
<path d="M0.00166321 254.56L28.2857 226.276L56.5697 254.56L28.2857 282.844L0.00166321 254.56Z" fill="white"/>
<path d="M0.00172424 311.128L28.2857 282.844L56.5697 311.128L28.2857 339.412L0.00172424 311.128Z" fill="white"/>
<path d="M56.5702 311.128L84.8542 282.844L113.138 311.128L84.8542 339.412L56.5702 311.128Z" fill="white"/>
<path d="M56.5701 254.56L84.8541 226.276L113.138 254.56L84.8541 282.844L56.5701 254.56Z" fill="white"/>
<path d="M113.138 254.559L141.422 226.275L169.706 254.559L141.422 282.843L113.138 254.559Z" fill="white"/>
<path d="M113.138 311.128L141.422 282.844L169.706 311.128L141.422 339.412L113.138 311.128Z" fill="white"/>
<path d="M169.706 311.127L197.99 282.843L226.274 311.127L197.99 339.411L169.706 311.127Z" fill="white"/>
<path d="M169.706 254.559L197.99 226.275L226.274 254.559L197.99 282.843L169.706 254.559Z" fill="white"/>
<path d="M226.274 254.558L254.558 226.274L282.842 254.558L254.558 282.842L226.274 254.558Z" fill="white"/>
<path d="M226.274 311.127L254.558 282.843L282.842 311.127L254.558 339.411L226.274 311.127Z" fill="white"/>
<path d="M282.843 311.127L311.127 282.843L339.411 311.127L311.127 339.411L282.843 311.127Z" fill="white"/>
<path d="M282.843 254.558L311.127 226.274L339.411 254.558L311.127 282.842L282.843 254.558Z" fill="white"/>
<path d="M339.411 254.558L367.695 226.274L395.979 254.558L367.695 282.842L339.411 254.558Z" fill="white"/>
<path d="M339.411 311.127L367.695 282.843L395.979 311.127L367.695 339.411L339.411 311.127Z" fill="white"/>
<path d="M395.979 311.126L424.263 282.842L452.547 311.126L424.263 339.41L395.979 311.126Z" fill="white"/>
<path d="M395.979 254.557L424.263 226.273L452.547 254.557L424.263 282.841L395.979 254.557Z" fill="white"/>
<path d="M452.547 254.557L480.831 226.273L509.115 254.557L480.831 282.841L452.547 254.557Z" fill="white"/>
<path d="M452.547 311.126L480.831 282.842L509.115 311.126L480.831 339.41L452.547 311.126Z" fill="white"/>
<path d="M0.00177765 367.697L28.2858 339.413L56.5698 367.697L28.2858 395.981L0.00177765 367.697Z" fill="white"/>
<path d="M56.5702 367.697L84.8542 339.413L113.138 367.697L84.8542 395.981L56.5702 367.697Z" fill="white"/>
<path d="M113.138 367.696L141.422 339.412L169.706 367.696L141.422 395.98L113.138 367.696Z" fill="white"/>
<path d="M169.706 367.696L197.99 339.412L226.274 367.696L197.99 395.98L169.706 367.696Z" fill="white"/>
<path d="M226.274 367.695L254.558 339.411L282.842 367.695L254.558 395.979L226.274 367.695Z" fill="white"/>
<path d="M282.843 367.695L311.127 339.411L339.411 367.695L311.127 395.979L282.843 367.695Z" fill="white"/>
<path d="M339.411 367.695L367.695 339.411L395.979 367.695L367.695 395.979L339.411 367.695Z" fill="white"/>
<path d="M395.979 367.694L424.263 339.41L452.547 367.694L424.263 395.978L395.979 367.694Z" fill="white"/>
<path d="M452.547 367.694L480.831 339.41L509.115 367.694L480.831 395.978L452.547 367.694Z" fill="white"/>
<path d="M509.114 28.284L537.398 0L565.682 28.284L537.398 56.568L509.114 28.284Z" fill="white"/>
<path d="M509.114 84.8524L537.398 56.5684L565.682 84.8524L537.398 113.136L509.114 84.8524Z" fill="white"/>
<path d="M509.114 141.42L537.398 113.136L565.682 141.42L537.398 169.704L509.114 141.42Z" fill="white"/>
<path d="M509.114 197.989L537.398 169.705L565.682 197.989L537.398 226.273L509.114 197.989Z" fill="white"/>
<path d="M509.115 254.556L537.399 226.272L565.683 254.556L537.399 282.84L509.115 254.556Z" fill="white"/>
<path d="M509.115 311.125L537.399 282.841L565.683 311.125L537.399 339.409L509.115 311.125Z" fill="white"/>
<path d="M509.115 367.693L537.399 339.409L565.683 367.693L537.399 395.977L509.115 367.693Z" fill="white"/>
</g>
<defs>
<clipPath id="clip0_3_3">
<rect width="565.683" height="395.981" fill="white"/>
</clipPath>
</defs>
</svg>
